!!!COM: Francesco Soriano
!!!OPR: Canoni et oblighi di cento et dieci sorte sopra l'Ave Maris Stella"
!!!PPR: Giovanni Battista Robletti
!!!PDT: 1610
!!!OTL: Canon XIV Alla settima alta.  Al sospiro.
**kern	**kern	**kern
*CF	*guida	*conseq
*k[]	*k[]	*k[]
*M4/2	*M4/2	*M4/2
=1	=1	=1
0D	4r	2.r
.	4B-	.
.	4G	.
.	4A	4a
.	4B-	4f
.	4G	4g
.	2d	4a
.	.	4f
=2	=2	=2
(0A	4r	2cc
.	4F	.
.	4D	4r
.	4E	4e
.	4F	4c
.	4D	4d
.	2A	4e
.	.	4c
=3	=3	=3
0B)	2E	2g
.	2r	2d
.	4r	2r
.	4.e	.
.	.	4r
.	8d	.
.	4d	[4dd
=4	=4	=4
0G	4e	8dd]
.	.	8cc
.	4c	4cc
.	4r	4dd
.	4e	4b
.	4c	4r
.	4d	4dd
.	2e	4b
.	.	4cc#
=5	=5	=5
(0A	2d	2dd
.	4r	2cc
.	4f	.
.	4d	4r
.	4e	4ee
.	2f	4cc
.	.	4dd
=6	=6	=6
0B	2e	2ee
.	2r	2dd
.	2E	2r
.	2G	2d
=7	=7	=7
0c	2F	2f
.	2r	2e
.	8A	2r
.	8G	.
.	8A	.
.	8B	.
.	2c	8g
.	.	8f
.	.	8g
.	.	8a
=8	=8	=8
0d	2G	2b-
.	2r	2f
.	4G	2r
.	4A	.
.	2B-	4f
.	.	4g
=9	=9	=9
0c	2F	2a
.	2r	2e
.	8F	2r
.	8E	.
.	8F	.
.	8G	.
.	2A	8e
.	.	8d
.	.	8e
.	.	8f
=10	=10	=10
0B	2E	2g
.	2r	2d
.	4E	2r
.	4F	.
.	2G	4d
.	.	4e
=11	=11	=11
0A	2D	2f
.	2r	2c
.	8D	2r
.	8C	.
.	8D	.
.	8E	.
.	2F	8c
.	.	8B
.	.	8c
.	.	8d
=12	=12	=12
0G	4C	2e
.	4c	.
.	4d	4B
.	4e	4b
.	4E	4cc
.	4F	4dd
.	2G	4d
.	.	4e
=13	=13	=13
0A	4D	2f
.	4d	.
.	4e	4c
.	2f	4cc
.	.	4dd
.	4e	2ee
.	2f	.
.	.	4dd
=14	=14	=14
0A	2r	2ee
.	4r	2r
.	4f	.
.	4d	4r
.	4e	4ee
.	4f	4cc
.	4d	4dd
=15	=15	=15
0A	4r	4ee
.	4f	4cc
.	4d	4r
.	4e	4ee
.	4f	4cc
.	8e	4dd
.	8d	.
.	4c#	4ee
.	4d	8dd
.	.	8cc
=16	=16	=16
0G	4e	4b
.	4c	4cc
.	4r	4dd
.	4e	4b
.	4c	4r
.	4d	4dd
.	2e	4b
.	.	4cc#
=17	=17	=17
0A	2d	2dd
.	2r	2cc
.	4.F	2r
.	8G	.
.	2A	4.e
.	.	8f
=18	=18	=18
0D	2G	2g
.	4r	2f
.	4B-	.
.	4G	4r
.	4A	4a
.	2B-	4f
.	.	4g
=19	=19	=19
0E	2A	2a
.	2r	2g
.	4A	2r
.	4B	.
.	4c	4g
.	4A	4a
=20	=20	=20
0G	4r	4b
.	4g	4g
.	4e	4r
.	4f	4ff
.	4g	4dd
.	8f	4ee
.	8e	.
.	4d	4ff
.	4e	8ee
.	.	8dd
=21	=21	=21
0F	2d	4cc
.	.	4dd
.	2r	2cc
.	4d	2r
.	4e	.
.	4f	4cc
.	8e	4dd
.	8d	.
=22	=22	=22
0E	4c	4ee
.	4A	8dd
.	.	8cc
.	4r	4b
.	4c	4g
.	4A	4r
.	4B	4b
.	2c	4g
.	.	4a
=23	=23	=23
0D	2G	2b-
.	4r	2f
.	4B-	.
.	4G	4r
.	4A	4a
.	2B-	4f
.	.	4g
=24	=24	=24
0E	2A	2a
.	2r	2g
.	4A	2r
.	8A	.
.	8B	.
.	2c	4g
.	.	8g
.	.	8a
=25	=25	=25
0D	2G	2b-
.	4r	2f
.	4B-	.
.	4G	4r
.	4A	4a
.	4B-	4f
.	4G	4g
=26	=26	=26
0F	2d	4a
.	.	4f
.	2r	2cc
.	4d	2r
.	4e	.
.	4f	4cc
.	4d	4dd
=27	=27	=27
0E	4c	4ee
.	4A	4cc
.	2r	4b
.	.	4g
.	4A	2r
.	4B	.
.	4c	4g
.	4A	4a
=28	=28	=28
0G	4r	4b
.	4.c	4g
.	.	4r
.	8d	.
.	2e	4.b
.	.	8cc
.	4d	2dd
.	2e	.
.	.	4cc#
=29	=29	=29
0A	4d	2dd
.	4e	.
.	4f	4cc
.	4d	4dd
.	2r	4ee
.	.	4cc
.	4r	2r
.	4f	.
=30	=30	=30
0A	4d	4r
.	4e	4ee
.	4f	4cc
.	4d	4dd
.	2r	4ee
.	.	4cc
.	8A	2r
.	8B	.
.	8c	.
.	8A	.
=31	=31	=31
0D	4B-	8g
.	.	8a
.	4G	8b-
.	.	8g
.	4r	4a
.	4B-	4f
.	4G	4r
.	4A	4a
.	2B-	4f
.	.	4g
=32	=32	=32
0E	2A	2a
.	4r	2g
.	4c	.
.	4c	4r
.	4d	4b
.	2e	4b
.	.	4cc#
=33	=33	=33
0F	2d	2dd
.	2r	2cc
.	4d	2r
.	4e	.
.	4f	4cc
.	8e	4dd
.	8d	.
=34	=34	=34
0E	4c	4ee
.	4A	8dd
.	.	8cc
.	2r	4b
.	.	4g
.	4r	2r
.	4.A	.
.	.	4r
.	8B	.
.	[4c	[4g
=35	=35	=35
0D	4c]	8g]
.	.	8a
.	8B-	2b-
.	8A	.
.	8G	.
.	8A	.
.	2B-	8a
.	.	8g
.	.	8f
.	.	8g
.	4A	2a
.	2B-	.
.	.	4g
=36	=36	=36
0C	2F	2a
.	2r	2e
.	4F	2r
.	4G	.
.	4A	4e
.	4F	4f
=37	=37	=37
0E	2c	4g
.	.	4e
.	2r	2b
.	4A	2r
.	4B	.
.	4c	4g
.	4A	4a
=38	=38	=38
0G	2e	4b
.	.	4g
.	2r	2dd
.	4r	2r
.	4.c	.
.	.	4r
.	8B	.
.	4B	[4b
=39	=39	=39
0E	4c	8b]
.	.	8a
.	4A	4a
.	4r	4b
.	2c	4g
.	.	4r
.	8B	2b
.	8A	.
.	2e	.
.	.	8a
.	.	8g
=40	=40	=40
0F	2d	2dd
.	2r	2cc
.	4.B-	2r
.	8c	.
.	2d	4.a
.	.	8b
=41	=41	=41
0E	2A	2cc
.	2r	2g
.	4.A	2r
.	8B	.
.	2c	4.g
.	.	8a
=42	=42	=42
[0D	2G	2b-
.	2r	2f
.	4.G	2r
.	8A	.
.	4.B-	4.f
.	8G	8g
=43	=43	=43
0D_	4d	[0a
.	2f#	.
.	2g	.
.	8f#	.
.	8e	.
.	4f#	.
.	4g	.
=44	=44	=44
0D]	0f#	0a]
==	==	==
*-	*-	*-
!!!CDT: 1548/|1549//-1621//
!!!OCY: Italia
!!!ODT: 1610
!!!AFR: cantus firmus canon
!!!AST: polyphony
!!!AMT: simple quadruple
!!!AIN: vox
!!!YEP: David Huron and Denis Collins
!!!YEN: Canada
!!!EEV: 1.0
!!!RDT: 1995 April 29
!!!YED: 1995 August 31
